X:398
T: MARLBRUCK ZOG AUS ZUM KRIEGE
N: E0325
O: Europa, Mitteleuropa, Deutschland
R: historisches Lied, Krieg, Marlborough (1709)
M: 6/8
L: 1/8
K: G
B | B2BB2A | c3B
cB | A2AAGA | B3G2
G | B2BB2A | c3B2
d | B2BAGA | B3z2
d | d2Bc2e | d3z2
d | d2Bc2e | d3z2

